Car LUT.cube
TITLE "Generated by Resolve"
LUT_3D_SIZE 33
0 0 0
0.0062562 0.000869764 0.000122072
0.0113069 0.00141909 0.000244144
0.0189364 0.00291447 0.000396735
0.0280003 0.00491341 0.00109865
0.0418402 0.00637827 0.000946059
0.0580301 0.00883497 0.0009308
0.0792096 0.011368 0.000808728
0.104768 0.0134737 0.000854505
0.13344 0.0146944 0.00105287
0.164294 0.0158694 0.00137331
0.196155 0.0170443 0.00180056
0.22855 0.0182498 0.00225834
0.261433 0.019379 0.0027924
0.295186 0.0211032 0.0033875
0.329229 0.0227207 0.00410468
0.363577 0.0243687 0.00488289
0.398291 0.0260471 0.00572213
0.432944 0.0272984 0.00650034
0.46804 0.0278019 0.00729381
0.503578 0.0280156 0.00799573
0.539193 0.0281376 0.00865187
0.575158 0.027924 0.00909438
0.61088 0.0274815 0.00939956
0.646677 0.026627 0.00950637
0.682643 0.0254978 0.00932326
0.719249 0.0238956 0.00892653
0.755932 0.0220035 0.00813306
0.792859 0.0191958 0.00695811
0.829664 0.0160525 0.00547799
0.866682 0.0135653 0.00367742
0.90396 0.013489 0.00259403
0.935683 0.0131075 0.00270085
0.00585946 0.012726 0.00784314
0.010956 0.0136873 0.00671397
0.0162509 0.016022 0.00535592
0.0229648 0.0184939 0.00459297
0.0330816 0.02121 0.00492866
0.0458839 0.0235599 0.00570687
0.0645762 0.0260319 0.00480659
0.0870985 0.0289616 0.00205997
0.113802 0.0315557 0.000869764
0.143374 0.0335393 0.000915541
0.174502 0.0352178 0.00120546
0.206546 0.0369573 0.00166323
0.239078 0.03888 0.00218204
0.27216 0.0408484 0.00274662
0.30576 0.043061 0.00340276
0.339879 0.0452888 0.00416571
0.374029 0.0470741 0.00495918
0.408164 0.0485847 0.00578317
0.44239 0.0497292 0.00654612
0.476936 0.0502022 0.00730907
0.512001 0.0505684 0.00798047
0.54728 0.0511482 0.00851453
0.582879 0.0516976 0.00889601
0.618524 0.0518502 0.0090486
0.653864 0.0518807 0.0090486
0.689632 0.0511177 0.00880446
0.725795 0.0499733 0.00822461
0.762081 0.0481727 0.00733959
0.79855 0.0454719 0.00611887
0.835096 0.0424506 0.00454719
0.871305 0.0386816 0.00273136
0.907576 0.0341344 0.00250248
0.937682 0.0292515 0.00263981
0.0115511 0.0252842 0.0204776
0.0166018 0.0271763 0.0167544
0.0232547 0.029572 0.0145571
0.03093 0.0331121 0.0126345
0.0404669 0.0369879 0.0118105
0.0522927 0.041413 0.0115511
0.070573 0.0455634 0.00862135
0.0944839 0.0487678 0.00332647
0.122774 0.0513008 0.000518807
0.153506 0.053666 0.000259403
0.185794 0.0562295 0.000564584
0.218219 0.0587015 0.00103761
0.250935 0.0612802 0.00164797
0.284062 0.063798 0.00233463
0.317525 0.0663615 0.00308232
0.3514 0.0688029 0.00390631
0.385214 0.0709087 0.00469978
0.418769 0.0723735 0.00553903
0.452598 0.07364 0.00628672
0.486931 0.0744945 0.00698863
0.52163 0.075227 0.00761425
0.556558 0.0762798 0.00808728
0.591653 0.0773022 0.00840772
0.626932 0.0778973 0.00849927
0.66183 0.0780804 0.00842298
0.696941 0.0774853 0.00808728
0.732601 0.0763409 0.00741588
0.768505 0.0746929 0.00634775
0.804471 0.0722362 0.00503548
0.840421 0.0691539 0.00343328
0.876341 0.0657664 0.00207523
0.9122 0.0614481 0.00225834
0.941146 0.0569314 0.00238041
0.0172274 0.0397955 0.0353704
0.0215305 0.0419928 0.0291295
0.0295567 0.04448 0.0251469
0.0385443 0.0482338 0.0231785
0.0496834 0.0530404 0.0201419
0.0626841 0.0585641 0.0178683
0.0796063 0.0643015 0.0128481
0.103029 0.0689097 0.00503548
0.132555 0.0720684 0.000289921
0.164569 0.0747387 0
0.197345 0.0777142 0
0.230381 0.0808423 6.10361e-05
0.263142 0.0838178 0.000808728
0.296025 0.0867781 0.00161746
0.329397 0.089601 0.00242618
0.362966 0.0923018 0.00328069
0.396353 0.0945602 0.00411994
0.429664 0.0962997 0.00497444
0.463142 0.0978256 0.00573739
0.497246 0.0991989 0.00639353
0.531426 0.100328 0.00701915
0.565835 0.101381 0.00737011
0.600687 0.102388 0.00766003
0.635218 0.103243 0.00766003
0.669657 0.103563 0.0075227
0.704387 0.103334 0.00708019
0.739498 0.102556 0.0062562
0.774945 0.101305 0.00515755
0.810605 0.0994278 0.00384527
0.846006 0.0971542 0.00210575
0.881483 0.0940566 0.00158694
0.916793 0.0900435 0.00180056
0.944793 0.0853895 0.00205997
0.0234531 0.0559548 0.0505531
0.0276188 0.0577707 0.0450294
0.0355535 0.0605631 0.0376745
0.0456703 0.0638895 0.034165
0.0578164 0.0693828 0.0307927
0.0719158 0.0758373 0.0252537
0.0894179 0.0829023 0.0175937
0.112459 0.0892348 0.00791943
0.142275 0.0937209 0.00102235
0.175586 0.0970321 0
0.209308 0.100298 0
0.242649 0.103716 0
0.275578 0.107225 0
0.308339 0.110552 0.000564584
0.341588 0.113664 0.00149538
0.374762 0.116518 0.00236515
0.407874 0.119036 0.00323491
0.440879 0.121172 0.0040589
0.474128 0.123003 0.00482185
0.50779 0.124895 0.00546273
0.541558 0.126146 0.00598154
0.575463 0.127245 0.00640879
0.609476 0.128038 0.00657664
0.643549 0.128878 0.00653086
0.677623 0.129488 0.00624094
0.712001 0.129656 0.00572213
0.746715 0.129351 0.00477607
0.78175 0.128649 0.00358587
0.816953 0.12755 0.002121
0.85211 0.125826 0.000640879
0.887221 0.123583 0.000869764
0.922057 0.120607 0.00117494
0.948882 0.116823 0.00163272
0.0316777 0.0731975 0.0635233
0.0354772 0.074815 0.0595102
0.0436713 0.0777142 0.0513008
0.0539559 0.0809186 0.0459449
0.0664378 0.0861067 0.0429694
0.0806744 0.0932631 0.0356298
0.0989242 0.101884 0.0239109
0.122515 0.110262 0.0112764
0.152956 0.116747 0.00244144
0.187121 0.121157 0
0.2215 0.125002 0
0.254978 0.128817 0
0.288136 0.132631 0
0.321035 0.136065 0
0.353811 0.139269 0.000183108
0.386404 0.142199 0.00109865
0.419135 0.144808 0.00202945
0.451942 0.147189 0.00280766
0.484901 0.149355 0.00352483
0.518013 0.151324 0.00416571
0.551324 0.152941 0.004654
0.584741 0.154162 0.00489815
0.618341 0.155077 0.00502022
0.651774 0.1561 0.00485237
0.685496 0.156863 0.00450141
0.719646 0.157336 0.0037995
0.75436 0.157412 0.00274662
0.788815 0.157153 0.0015259
0.823636 0.156329 0
0.858381 0.155138 0
0.893034 0.153353 0
0.927581 0.150958 0.000503548
0.953002 0.148043 0.00103761
0.0427405 0.0923018 0.0732128
0.0453498 0.0934615 0.0702678
0.0531014 0.096437 0.0623636
0.0629587 0.099733 0.0564126
0.0764935 0.104417 0.0538949
0.0905013 0.11136 0.046891
0.108553 0.120974 0.0321813
0.132296 0.131426 0.0157015
0.162722 0.139849 0.00471504
0.197818 0.145907 0
0.232715 0.150851 0
0.266361 0.155291 0
0.299382 0.159319 0
0.332204 0.162921 0
0.364889 0.166247 0
0.397421 0.169223 0
0.429725 0.171969 0.000274662
0.462089 0.174365 0.00108339
0.494804 0.176669 0.00180056
0.527642 0.178714 0.00238041
0.56051 0.180423 0.00277714
0.593591 0.181888 0.00297551
0.62681 0.183001 0.00297551
0.659937 0.184298 0.00273136
0.69337 0.185199 0.00213626
0.727245 0.185977 0.00134279
0.761501 0.186282 0.000183108
0.795651 0.186252 0
0.830076 0.185534 0
0.864424 0.184482 0
0.898634 0.183078 0
0.932815 0.181216 0
0.956954 0.178927 0.000122072
0.0549477 0.112505 0.0795758
0.0563058 0.113222 0.0782177
0.0633249 0.116594 0.0713664
0.0721752 0.119936 0.0663615
0.0870069 0.124178 0.0647288
0.101808 0.130922 0.0585794
0.119661 0.140703 0.041825
0.142657 0.152071 0.0213169
0.172885 0.162661 0.00743114
0.20824 0.170581 0
0.243305 0.176822 0
0.276936 0.182452 0
0.309911 0.187228 0
0.342458 0.191165 0
0.37496 0.194644 0
0.407156 0.197635 0
0.439261 0.200259 0
0.471489 0.202716 0
0.503899 0.204974 0
0.536492 0.207034 0
0.569223 0.208728 0.000366217
0.602014 0.2103 0.000457771
0.634821 0.211688 0.00030518
0.667674 0.213031 0
0.700923 0.214023 0
0.734295 0.214755 0
0.768048 0.215228 0
0.801907 0.215183 0
0.836057 0.214801 0
0.869917 0.214115 0
0.903807 0.212924 0
0.937789 0.211398 0
0.96051 0.209476 0
0.0674754 0.134646 0.0848096
0.0676432 0.134798 0.0848096
0.07393 0.138231 0.0793317
0.0829023 0.141512 0.0758526
0.098436 0.145342 0.0756085
0.114534 0.15198 0.070222
0.13254 0.161913 0.0518502
0.155291 0.173663 0.0273442
0.184527 0.185122 0.0107424
0.219425 0.19469 0.00131228
0.254124 0.202686 0
0.287266 0.209567 0
0.319585 0.21529 0
0.351827 0.22005 0
0.383948 0.223896 0
0.415885 0.226947 0
0.447669 0.229633 0
0.479759 0.232044 0
0.51194 0.234257 0
0.544488 0.236255 0
0.576974 0.237888 0
0.609598 0.23949 0
0.642298 0.240833 0
0.674754 0.24213 0
0.707729 0.243076 0
0.740887 0.243992 0
0.774289 0.244465 0
0.807889 0.244572 0
0.841596 0.244221 0
0.875166 0.243748 0
0.908843 0.242908 0
0.942489 0.241733 0
0.963607 0.239872 0
0.0793927 0.158206 0.0908064
0.0793927 0.15819 0.090837
0.0849622 0.160952 0.0872816
0.0948806 0.164141 0.0853132
0.111147 0.167865 0.0865339
0.128649 0.174807 0.0812848
0.14728 0.184939 0.0608682
0.170077 0.196887 0.0335851
0.198215 0.208377 0.0140688
0.232044 0.218494 0.00294499
0.26598 0.22797 0
0.298116 0.236393 0
0.329427 0.243275 0
0.360662 0.248905 0
0.392126 0.25362 0
0.423545 0.257084 0
0.455009 0.259815 0
0.486671 0.26215 0
0.518914 0.264347 0
0.551202 0.266255 0
0.583734 0.267933 0
0.61648 0.269368 0
0.648783 0.270726 0
0.681239 0.271977 0
0.713893 0.272892 0
0.746883 0.273625 0
0.780072 0.274083 0
0.813306 0.274281 0
0.846784 0.274083 0
0.880034 0.27364 0
0.913405 0.272984 0
0.946761 0.272007 0
0.966293 0.270436 0
0.091249 0.182864 0.0963149
0.0912947 0.182956 0.096376
0.0974594 0.185367 0.0948196
0.108721 0.188357 0.0950179
0.126009 0.192401 0.0968948
0.144091 0.199329 0.0914626
0.163439 0.209689 0.0690166
0.186511 0.221485 0.0396887
0.213901 0.232822 0.0177768
0.246571 0.24303 0.00476081
0.279393 0.252857 0
0.310292 0.262623 0
0.340246 0.270878 0
0.370123 0.277577 0
0.400198 0.282963 0
0.430701 0.287251 0
0.46157 0.290562 0
0.492836 0.293034 0
0.52491 0.295293 0
0.557168 0.297139 0
0.589487 0.298802 0
0.622065 0.300145 0
0.654292 0.301396 0
0.686351 0.302358 0
0.71902 0.303243 0
0.752071 0.303746 0
0.785016 0.30428 0
0.818173 0.304417 0
0.851316 0.304234 0
0.884352 0.303899 0
0.91751 0.30338 0
0.950637 0.302464 0
0.968521 0.301076 0
0.104463 0.208637 0.103166
0.104463 0.208637 0.103166
0.112093 0.210636 0.103548
0.125048 0.213458 0.105608
0.14313 0.218067 0.107393
0.161776 0.225818 0.0996109
0.181857 0.236515 0.0747539
0.205295 0.248188 0.0453193
0.232105 0.259281 0.0215152
0.263203 0.269123 0.00669871
0.295048 0.278523 0
0.324559 0.288655 0
0.352804 0.298161 0
0.380835 0.306035 0
0.409171 0.312169 0
0.438148 0.317159 0
0.468025 0.321172 0
0.49865 0.324376 0
0.530175 0.326802 0
0.56202 0.328618 0
0.594263 0.330114 0
0.626444 0.331487 0
0.658549 0.332555 0
0.690791 0.333364 0
0.723461 0.333913 0
0.756237 0.334432 0
0.78912 0.334798 0
0.822126 0.335027 0
0.855039 0.334829 0
0.888045 0.334462 0
0.92105 0.333974 0
0.954192 0.333181 0
0.970199 0.331838 0
0.121279 0.234958 0.112612
0.121279 0.234958 0.112612
0.130755 0.237079 0.114443
0.144518 0.240116 0.117021
0.162982 0.245426 0.117082
0.181704 0.254292 0.104891
0.202518 0.265202 0.0784466
0.225956 0.276417 0.049424
0.252003 0.287114 0.024506
0.281804 0.296468 0.00866712
0.312673 0.30544 0
0.340795 0.315038 0
0.367224 0.325032 0
0.393118 0.334081 0
0.419501 0.34136 0
0.446723 0.347005 0
0.475029 0.351614 0
0.50454 0.355306 0
0.535149 0.358343 0
0.566323 0.36054 0
0.598123 0.361929 0
0.630152 0.363119 0
0.66212 0.363912 0
0.69427 0.364675 0
0.726848 0.365255 0
0.759487 0.365637 0
0.792294 0.365927 0
0.825193 0.365972 0
0.858061 0.365835 0
0.89099 0.365438 0
0.92398 0.36495 0
0.957061 0.364187 0
0.971237 0.362982 0
0.141649 0.262577 0.124483
0.141695 0.262592 0.124483
0.153689 0.265064 0.12723
0.168429 0.268666 0.128801
0.186084 0.275364 0.122835
0.204776 0.284962 0.105867
0.225818 0.295583 0.0799268
0.248844 0.306188 0.0513313
0.273564 0.316228 0.0264439
0.302525 0.325078 0.0104219
0.33193 0.333532 0.000976577
0.358862 0.342687 0
0.383719 0.352331 0
0.407279 0.361929 0
0.431357 0.370321 0
0.456336 0.376776 0
0.482719 0.381872 0
0.510735 0.385992 0
0.540047 0.389334 0
0.570397 0.391897 0
0.601556 0.393729 0
0.633097 0.394919 0
0.66479 0.395682 0
0.696834 0.396307 0
0.72929 0.396887 0
0.761837 0.397223 0
0.79472 0.39736 0
0.827558 0.39736 0
0.86038 0.397208 0
0.893278 0.396796 0
0.926177 0.396262 0
0.959365 0.395483 0
0.971603 0.394324 0
0.165286 0.290974 0.138201
0.168338 0.29163 0.138521
0.181704 0.294804 0.13901
0.195453 0.299718 0.13492
0.211673 0.307515 0.123262
0.229969 0.316884 0.104463
0.250401 0.326772 0.0790265
0.272923 0.336583 0.0512245
0.296788 0.346365 0.0269932
0.324712 0.354696 0.0120699
0.35256 0.362814 0.00274662
0.377905 0.371496 0
0.401144 0.380621 0
0.422995 0.389746 0
0.444373 0.398627 0
0.46714 0.406073 0
0.491539 0.411658 0
0.517662 0.416159 0
0.545464 0.419928 0
0.574578 0.422889 0
0.604913 0.425193 0
0.63563 0.427008 0
0.666987 0.427832 0
0.698711 0.428504 0
0.730999 0.428962 0
0.763577 0.42916 0
0.796307 0.429236 0
0.829068 0.429236 0
0.861753 0.429068 0
0.894636 0.428641 0
0.927672 0.427985 0
0.960861 0.427192 0
0.97116 0.4262 0
0.19115 0.321004 0.149676
0.198093 0.322957 0.147921
0.210407 0.327535 0.142794
0.223743 0.333471 0.134142
0.239307 0.341161 0.120531
0.256901 0.349813 0.10132
0.276417 0.358816 0.0759594
0.297993 0.367742 0.0507057
0.321218 0.377111 0.0276799
0.347265 0.385367 0.0138247
0.373236 0.392813 0.00488289
0.396979 0.400931 0
0.418662 0.409354 0
0.439002 0.417929 0
0.458747 0.426429 0
0.47892 0.434256 0
0.501015 0.440894 0
0.525246 0.445945 0
0.551324 0.450111 0
0.57908 0.453437 0
0.608042 0.456184 0
0.638071 0.458396 0
0.668696 0.459861 0
0.700023 0.460761 0
0.732113 0.461158 0
0.764401 0.46154 0
0.797009 0.461509 0
0.829725 0.461509 0
0.862531 0.461219 0
0.89543 0.4607 0
0.928496 0.460182 0
0.961624 0.459419 0
0.96997 0.458366 0
0.215824 0.352941 0.153994
0.226856 0.356664 0.148669
0.239185 0.361624 0.141238
0.252552 0.367819 0.130724
0.267659 0.375082 0.116381
0.284688 0.383032 0.0965286
0.303532 0.391363 0.0731518
0.324132 0.399588 0.0506447
0.345937 0.40798 0.0308232
0.368841 0.415915 0.0181125
0.392935 0.422873 0.00972
0.415015 0.430381 0.00300603
0.435325 0.438239 0
0.454414 0.44622 0
0.472908 0.454185 0
0.4916 0.461997 0
0.511513 0.469139 0
0.533715 0.475242 0
0.557992 0.479912 0
0.584039 0.483772 0
0.611719 0.486885 0
0.640589 0.489433 0
0.670481 0.491463 0
0.701289 0.492882 0
0.732784 0.493706 0
0.764828 0.493935 0
0.797238 0.494102 0
0.829862 0.494026 0
0.862623 0.49366 0
0.895521 0.493294 0
0.928634 0.492714 0
0.961898 0.491859 0
0.968032 0.490898 0
0.245274 0.386999 0.154437
0.256855 0.391272 0.147997
0.269459 0.396674 0.138933
0.281987 0.402426 0.127672
0.296178 0.408865 0.112535
0.312352 0.416114 0.0932784
0.329946 0.423484 0.073106
0.34902 0.430808 0.0531777
0.368429 0.438361 0.0357061
0.389212 0.445777 0.0238804
0.411185 0.452506 0.0157778
0.431876 0.459571 0.00901808
0.451102 0.466987 0.00350958
0.469169 0.474479 0
0.486748 0.482124 0
0.504433 0.489525 0
0.522866 0.496925 0
0.542947 0.503594 0
0.565393 0.509148 0
0.589792 0.513603 0
0.616053 0.517174 0
0.643748 0.520226 0
0.672633 0.522622 0
0.702632 0.524437 0
0.733547 0.525856 0
0.765118 0.526619 0
0.797238 0.526757 0
0.829679 0.526772 0
0.862348 0.526467 0
0.895064 0.526024 0
0.928145 0.525505 0
0.96144 0.524727 0
0.965454 0.523842 0
0.274159 0.420691 0.155291
0.286076 0.42565 0.147234
0.298482 0.431006 0.136721
0.310109 0.43595 0.125048
0.323171 0.441535 0.110155
0.337926 0.447745 0.0922713
0.354147 0.454017 0.0751049
0.371862 0.460609 0.057145
0.389532 0.467674 0.0412299
0.407889 0.4748 0.0302739
0.428107 0.481605 0.0220951
0.447745 0.488457 0.0154726
0.465995 0.495521 0.00965896
0.483406 0.502632 0.00453193
0.500252 0.509819 0.000259403
0.517205 0.517082 0
0.534646 0.5243 0
0.553109 0.53135 0
0.573617 0.537697 0
0.596353 0.542916 0
0.620996 0.547127 0
0.647349 0.5505 0
0.675196 0.553307 0
0.704356 0.555642 0
0.734447 0.557488 0
0.76556 0.558709 0
0.797101 0.559564 0
0.829099 0.559716 0
0.86157 0.559411 0
0.894286 0.55906 0
0.927428 0.558495 0
0.960372 0.5579 0
0.962249 0.557 0
0.301503 0.453208 0.155657
0.313924 0.458183 0.145663
0.325414 0.462867 0.134356
0.336034 0.467231 0.122515
0.347875 0.471992 0.108675
0.361166 0.477317 0.0936446
0.375998 0.483009 0.078172
0.392172 0.489143 0.0626688
0.408545 0.495872 0.0479591
0.425177 0.503227 0.0370489
0.443824 0.510048 0.0289616
0.462501 0.516793 0.0222019
0.480171 0.523659 0.0161746
0.496956 0.530571 0.0106355
0.51339 0.537484 0.0059205
0.529686 0.544472 0.00138857
0.546441 0.551476 0
0.563897 0.558495 0
0.582818 0.565332 0
0.603586 0.57142 0
0.626657 0.576242 0
0.651621 0.580331 0
0.678264 0.583764 0
0.706432 0.586526 0
0.735729 0.588739 0
0.766018 0.590463 0
0.796979 0.591623 0
0.828504 0.592386 0
0.860685 0.592508 0
0.893019 0.592172 0
0.925902 0.59173 0
0.958495 0.591104 0
0.958602 0.590188 0
0.327932 0.484306 0.154391
0.339315 0.48864 0.143847
0.349493 0.492638 0.133013
0.359091 0.496483 0.122255
0.36997 0.50074 0.109804
0.382132 0.505684 0.0967727
0.396109 0.511208 0.0837262
0.41091 0.517189 0.0703593
0.4262 0.52372 0.057145
0.441901 0.530968 0.0463264
0.458244 0.53817 0.0376745
0.475959 0.544732 0.0306401
0.493126 0.5514 0.024033
0.509667 0.558145 0.018143
0.525856 0.564889 0.0124971
0.541833 0.571633 0.00724804
0.558129 0.578439 0.00262455
0.57499 0.585336 0
0.592798 0.592279 0
0.611856 0.598856 0
0.63328 0.604807 0
0.656779 0.609598 0
0.682094 0.613611 0
0.709178 0.616861 0
0.737423 0.619608 0
0.766827 0.621698 0
0.797055 0.623346 0
0.828077 0.62443 0
0.859648 0.625147 0
0.891752 0.62533 0
0.924254 0.624994 0
0.954543 0.624399 0
0.954635 0.623606 0
0.351858 0.51371 0.154742
0.362005 0.517464 0.144884
0.371176 0.520958 0.135195
0.380285 0.524697 0.125277
0.390417 0.528862 0.114305
0.401663 0.533593 0.102678
0.414679 0.538933 0.0918135
0.428763 0.544915 0.0792096
0.44332 0.551385 0.0670176
0.458061 0.558434 0.0562142
0.472877 0.565469 0.0469978
0.48864 0.572244 0.0392004
0.505302 0.578744 0.0323644
0.521691 0.585412 0.0259403
0.537667 0.59205 0.019913
0.553674 0.598703 0.0140841
0.569726 0.605386 0.00877394
0.586191 0.612116 0.00401312
0.603281 0.618891 0
0.621408 0.625696 0
0.641032 0.632242 0
0.662882 0.637888 0
0.686778 0.642603 0
0.712551 0.646525 0
0.739574 0.649805 0
0.768063 0.652384 0
0.797498 0.654536 0
0.82771 0.656092 0
0.858656 0.657221 0
0.890394 0.657938 0
0.922637 0.658152 0
0.950484 0.657786 0
0.950561 0.65713 0
0.373754 0.541939 0.157534
0.3832 0.54551 0.148287
0.391928 0.549004 0.139452
0.400107 0.552285 0.130831
0.409445 0.556451 0.120729
0.420386 0.561257 0.110384
0.432349 0.566445 0.100298
0.445792 0.572274 0.089601
0.459312 0.578698 0.0776379
0.473136 0.585367 0.0668498
0.486961 0.592203 0.0571603
0.50135 0.599054 0.0486458
0.516884 0.605676 0.0411841
0.533135 0.612284 0.0343328
0.549081 0.618891 0.027863
0.564996 0.625452 0.0215763
0.580987 0.632151 0.0157778
0.59707 0.638727 0.0102541
0.613733 0.64535 0.00485237
0.631174 0.652064 0
0.649775 0.658808 0
0.669963 0.665141 0
0.692317 0.670787 0
0.716609 0.675395 0
0.742489 0.679271 0
0.769802 0.682506 0
0.798321 0.68513 0
0.827787 0.687114 0
0.857969 0.688746 0
0.889143 0.689845 0
0.920913 0.690547 0
0.946303 0.690578 0
0.94641 0.68983 0
0.394476 0.569818 0.16173
0.403159 0.57319 0.153368
0.411063 0.576364 0.145495
0.418723 0.579782 0.137758
0.427405 0.583658 0.128954
0.437446 0.588327 0.119417
0.448722 0.593469 0.110399
0.461097 0.599115 0.100664
0.473808 0.605035 0.090074
0.4869 0.611414 0.0792706
0.500267 0.618097 0.0691386
0.513924 0.624994 0.0598154
0.528298 0.631952 0.0514076
0.543923 0.638636 0.0435645
0.559823 0.645243 0.036286
0.57557 0.651728 0.0294652
0.591394 0.658289 0.0230869
0.607217 0.664698 0.0169833
0.623697 0.671305 0.0110475
0.640772 0.678096 0.00546273
0.658808 0.684916 0.000122072
0.678004 0.69163 0
0.698604 0.697932 0
0.72137 0.703471 0
0.745922 0.708034 0
0.772107 0.711894 0
0.799542 0.715084 0
0.828199 0.717647 0
0.857816 0.719554 0
0.888167 0.720897 0
0.919463 0.721675 0
0.942184 0.721965 0
0.942275 0.721355 0
0.412573 0.596246 0.170291
0.420523 0.599542 0.162661
0.428168 0.602884 0.155367
0.435294 0.606027 0.148409
0.443412 0.609903 0.140475
0.452598 0.614237 0.131701
0.462867 0.61912 0.123064
0.474403 0.624537 0.114443
0.486625 0.63035 0.104631
0.499306 0.636454 0.0938582
0.512383 0.643 0.0833295
0.525795 0.64979 0.0730449
0.539452 0.656886 0.0633249
0.553826 0.663874 0.0544137
0.569406 0.670588 0.0461738
0.585153 0.677226 0.0383154
0.600885 0.683711 0.03093
0.616724 0.690242 0.0241245
0.632898 0.696849 0.0177157
0.649866 0.703609 0.0115053
0.667399 0.710414 0.00569161
0.686015 0.717357 9.15541e-05
0.705638 0.724117 0
0.726955 0.730358 0
0.750164 0.735729 0
0.775097 0.740337 0
0.801587 0.743999 0
0.829282 0.746914 0
0.858091 0.749249 0
0.887663 0.750896 0
0.918227 0.752117 0
0.938415 0.75259 0
0.938476 0.751995 0
0.428901 0.621958 0.180667
0.43624 0.625055 0.173877
0.443076 0.628168 0.167437
0.449897 0.631281 0.160876
0.457435 0.634821 0.153552
0.466087 0.639094 0.14548
0.475776 0.643809 0.136812
0.486412 0.648951 0.12842
0.498222 0.654673 0.119539
0.510521 0.660807 0.109133
0.523247 0.66717 0.098024
0.536431 0.673899 0.0872206
0.550011 0.680858 0.0765545
0.563699 0.687984 0.0664378
0.578164 0.695201 0.0570687
0.593668 0.7019 0.0482338
0.609384 0.708492 0.0397498
0.625238 0.715145 0.0318303
0.64155 0.721859 0.024567
0.658183 0.728496 0.0179446
0.675608 0.735378 0.0116274
0.693843 0.74229 0.00547799
0.713069 0.749187 0
0.733516 0.75584 0
0.755398 0.761913 0
0.779156 0.767178 0
0.804425 0.77145 0
0.831098 0.775051 0
0.858869 0.777981 0
0.887541 0.780163 0
0.917296 0.781872 0
0.935042 0.782635 0
0.935088 0.782177 0
0.443793 0.64683 0.192309
0.450614 0.649821 0.186007
0.456977 0.652705 0.180179
0.463203 0.65565 0.174182
0.470329 0.659129 0.167422
0.478431 0.663111 0.159533
0.487602 0.667735 0.150866
0.497719 0.672847 0.141909
0.508812 0.678386 0.133242
0.520684 0.684352 0.123964
0.533135 0.690745 0.113024
0.546212 0.697536 0.101472
0.559503 0.704417 0.0901961
0.573175 0.71162 0.0791943
0.587091 0.718837 0.0686656
0.601663 0.725811 0.058732
0.617029 0.732555 0.049424
0.633021 0.739284 0.0404059
0.649485 0.746075 0.0320439
0.666178 0.752697 0.0247349
0.683436 0.759457 0.0179599
0.701534 0.766262 0.0113527
0.720592 0.773251 0.00514229
0.740459 0.780102 0
0.761501 0.78674 0
0.78381 0.792874 0
0.807889 0.798047 0
0.833371 0.802457 0
0.859846 0.806058 0
0.887617 0.809033 0
0.916518 0.811276 0
0.932006 0.81207 0
0.932036 0.811734 0
0.457343 0.67129 0.204166
0.463722 0.674006 0.198611
0.469825 0.676905 0.193042
0.475547 0.67953 0.187701
0.482368 0.682918 0.181186
0.490105 0.686717 0.173632
0.49868 0.691127 0.165118
0.508354 0.696147 0.155932
0.518883 0.701579 0.146609
