Car LUT.cube
TITLE "Generated by Resolve"
LUT_3D_SIZE 9
0 0 0
0.0280003 0.00491341 0.00109865
0.104768 0.0134737 0.000854505
0.22855 0.0182498 0.00225834
0.363577 0.0243687 0.00488289
0.503578 0.0280156 0.00799573
0.646677 0.026627 0.00950637
0.792859 0.0191958 0.00695811
0.935683 0.0131075 0.00270085
0.0234531 0.0559548 0.0505531
0.0578164 0.0693828 0.0307927
0.142275 0.0937209 0.00102235
0.275578 0.107225 0
0.407874 0.119036 0.00323491
0.541558 0.126146 0.00598154
0.677623 0.129488 0.00624094
0.816953 0.12755 0.002121
0.948882 0.116823 0.00163272
0.0674754 0.134646 0.0848096
0.098436 0.145342 0.0756085
0.184527 0.185122 0.0107424
0.319585 0.21529 0
0.447669 0.229633 0
0.576974 0.237888 0
0.707729 0.243076 0
0.841596 0.244221 0
0.963607 0.239872 0
0.121279 0.234958 0.112612
0.162982 0.245426 0.117082
0.252003 0.287114 0.024506
0.367224 0.325032 0
0.475029 0.351614 0
0.598123 0.361929 0
0.726848 0.365255 0
0.858061 0.365835 0
0.971237 0.362982 0
0.215824 0.352941 0.153994
0.267659 0.375082 0.116381
0.345937 0.40798 0.0308232
0.435325 0.438239 0
0.511513 0.469139 0
0.611719 0.486885 0
0.732784 0.493706 0
0.862623 0.49366 0
0.968032 0.490898 0
0.327932 0.484306 0.154391
0.36997 0.50074 0.109804
0.4262 0.52372 0.057145
0.493126 0.5514 0.024033
0.558129 0.578439 0.00262455
0.63328 0.604807 0
0.737423 0.619608 0
0.859648 0.625147 0
0.954635 0.623606 0
0.412573 0.596246 0.170291
0.443412 0.609903 0.140475
0.486625 0.63035 0.104631
0.539452 0.656886 0.0633249
0.600885 0.683711 0.03093
0.667399 0.710414 0.00569161
0.750164 0.735729 0
0.858091 0.749249 0
0.938476 0.751995 0
0.470115 0.694484 0.216297
0.494011 0.70573 0.194736
0.528695 0.723705 0.160998
0.577173 0.748989 0.118456
0.632898 0.777676 0.0701915
0.697505 0.80621 0.0308537
0.773236 0.834943 0.00631724
0.862974 0.860578 0
0.926879 0.869322 0
0.511772 0.782391 0.25565
0.531456 0.792691 0.239582
0.561105 0.80911 0.210101
0.603021 0.833326 0.164263
0.656321 0.863066 0.109987
0.719234 0.895613 0.0564279
0.791074 0.929854 0.0412909
0.871122 0.961883 0.04271
0.922103 0.985199 0.0667277
0.00111391 0.00381476 0.0232242
0.0210727 0.0103304 0.041474
0.0901045 0.0169985 0.0396735
0.212619 0.0145418 0.0406653
0.343435 0.0177157 0.0413214
0.477516 0.024979 0.0431983
0.61651 0.0281529 0.0416876
0.763912 0.0236973 0.0356756
0.905257 0.0225834 0.0247349
0.0201114 0.0596323 0.0827192
0.0436255 0.0692454 0.0852979
0.143465 0.0947585 0.0717327
0.282063 0.101061 0.0715038
0.408988 0.104585 0.0766003
0.535454 0.108019 0.0848859
0.67071 0.113634 0.0930037
0.813733 0.116213 0.0980545
0.947051 0.110307 0.0983444
0.0606546 0.133181 0.132433
0.0827955 0.145495 0.12813
0.185855 0.189532 0.0859693
0.334569 0.219486 0.0788586
0.462089 0.228641 0.0800946
0.586542 0.234577 0.086183
0.714839 0.239673 0.0922408
0.846357 0.241169 0.0952621
0.966567 0.237781 0.0935378
0.10985 0.219165 0.141039
0.12752 0.231296 0.137194
0.242512 0.281743 0.089128
0.374075 0.327718 0.0656443
0.487083 0.352651 0.0771496
0.611734 0.360113 0.0801709
0.738521 0.363027 0.082475
0.866804 0.363958 0.08336
0.977234 0.361395 0.0797131
0.168566 0.329946 0.169528
0.242603 0.353857 0.17229
0.336706 0.399969 0.0880293
0.43801 0.437201 0.0609293
0.51812 0.468742 0.0683757
0.621347 0.486015 0.070161
0.74374 0.491768 0.0666667
0.872633 0.491432 0.0626993
0.975875 0.488624 0.0564736
0.320836 0.474037 0.192966
0.365225 0.493462 0.152026
0.425498 0.519448 0.10016
0.496025 0.549767 0.0718395
0.563119 0.577569 0.061799
0.6392 0.603586 0.0581674
0.744472 0.618219 0.049424
0.86685 0.623209 0.039292
0.961105 0.6215 0.0296788
0.41352 0.592874 0.199969
0.444099 0.606516 0.171099
0.488121 0.628031 0.137057
0.542077 0.655528 0.0991836
0.604227 0.682933 0.0707256
0.671351 0.709712 0.0513619
0.754467 0.73489 0.035996
0.862531 0.748257 0.0208591
0.942367 0.751003 0.00888075
0.472618 0.693584 0.238651
0.495964 0.70457 0.217609
0.530709 0.72285 0.184588
0.579171 0.74847 0.144167
0.635142 0.777325 0.0972152
0.699702 0.806104 0.0581064
0.775662 0.834806 0.0350652
0.8654 0.860227 0.0203403
0.92874 0.869001 0.00636301
0.513634 0.782467 0.270085
0.533165 0.792584 0.254002
0.562615 0.809033 0.224903
0.604364 0.833448 0.179858
0.657435 0.863172 0.125582
0.720287 0.895796 0.0707408
0.792096 0.930175 0.0527199
0.871916 0.962081 0.0508583
0.922332 0.985183 0.0694591
0.00267033 0.0141604 0.0591745
0.0185855 0.0191196 0.07953
0.0607156 0.0247959 0.0826886
0.180606 0.0211643 0.0920272
0.328725 0.0141451 0.118517
0.473548 0.014786 0.136645
0.616876 0.0165255 0.145464
0.761318 0.0121157 0.146609
0.90135 0.0121462 0.141207
0.0125734 0.0686198 0.131441
0.0333562 0.0777905 0.138567
0.0936446 0.0952468 0.136126
0.236347 0.0928054 0.121218
0.377325 0.0944839 0.136248
0.510781 0.101213 0.145663
0.642695 0.107332 0.149142
0.778149 0.10985 0.146899
0.91133 0.106569 0.141878
0.0601053 0.150347 0.187808
0.0778058 0.158892 0.194354
0.157748 0.200183 0.216403
0.321172 0.230686 0.200992
0.463691 0.233906 0.205081
0.590448 0.236896 0.210025
0.716793 0.236393 0.212085
0.844785 0.232425 0.211444
0.963424 0.229114 0.212085
0.117891 0.237217 0.224308
0.134096 0.247318 0.224659
0.230854 0.300221 0.228885
0.373785 0.346242 0.206943
0.498756 0.361746 0.21387
0.624094 0.363928 0.211093
0.748577 0.363333 0.207965
0.874083 0.362051 0.208011
0.982452 0.359091 0.209598
0.16907 0.329702 0.225864
0.202991 0.354314 0.233524
0.333516 0.405142 0.204974
0.443061 0.449393 0.171511
0.529961 0.477195 0.190234
0.634058 0.488716 0.197147
0.758511 0.489387 0.196262
0.886122 0.488014 0.198611
0.98732 0.485298 0.200488
0.247578 0.436545 0.253468
0.33698 0.469429 0.239002
0.415595 0.508537 0.175036
0.497063 0.548424 0.151568
0.571069 0.578973 0.157763
0.649104 0.604196 0.175631
0.757244 0.61651 0.184436
0.882292 0.619089 0.187716
0.977081 0.616266 0.186908
0.403983 0.577691 0.275868
0.437293 0.59234 0.243748
0.484733 0.616815 0.203998
0.545754 0.64976 0.176761
0.610651 0.680858 0.161517
0.680217 0.708278 0.159945
0.765682 0.733227 0.171191
0.876173 0.745342 0.173449
0.957366 0.747005 0.170581
0.48014 0.690227 0.321202
0.502144 0.699367 0.296376
0.535592 0.716747 0.263783
0.584115 0.743816 0.232517
0.642252 0.775509 0.199725
0.707668 0.805371 0.169848
0.785458 0.834272 0.159243
0.877531 0.859174 0.168276
0.941787 0.867231 0.166094
0.527276 0.786114 0.361456
0.545052 0.793378 0.342977
0.571511 0.807248 0.314961
0.611734 0.83122 0.277745
0.664668 0.862394 0.237568
0.728359 0.896468 0.197803
0.802426 0.932387 0.183215
0.883696 0.964614 0.194736
0.934905 0.984329 0.227497
0.00463874 0.0275578 0.104875
0.0208133 0.031342 0.123995
0.0508736 0.0320287 0.145632
0.140154 0.0411383 0.125933
0.275776 0.0366369 0.153521
0.437293 0.0260166 0.205463
0.597208 0.0183261 0.239597
0.751675 0.00848402 0.256962
0.898314 0.0074464 0.263218
0.00888075 0.0797894 0.174166
0.0291142 0.0892195 0.181964
0.0695354 0.105348 0.203189
0.187686 0.106249 0.174395
0.315221 0.0957809 0.17995
0.469581 0.0984054 0.221546
0.623636 0.102083 0.248203
0.771695 0.102144 0.260517
0.911955 0.098909 0.267689
0.0302739 0.162524 0.270726
0.0550393 0.169955 0.278233
0.105196 0.199649 0.314748
0.278859 0.249378 0.290654
0.4262 0.235203 0.272511
0.561242 0.233524 0.28574
0.692439 0.237263 0.289647
0.820584 0.23537 0.284764
0.940398 0.241657 0.282109
0.103517 0.26125 0.319081
0.11986 0.266026 0.321538
0.171221 0.307271 0.361913
0.36582 0.377539 0.34873
0.495094 0.37702 0.348318
0.624735 0.371313 0.345006
0.748959 0.368948 0.345983
0.875792 0.365713 0.347356
0.983291 0.361822 0.347662
0.16585 0.352834 0.35024
0.194995 0.37351 0.364111
0.297856 0.430365 0.392126
0.443992 0.474372 0.361608
0.535531 0.490974 0.352178
0.647166 0.492485 0.344976
0.770199 0.491615 0.343404
0.895308 0.489204 0.343771
0.994049 0.48539 0.343038
0.241749 0.457969 0.396323
0.310643 0.497536 0.39884
0.424552 0.533257 0.377569
0.508232 0.567651 0.349554
0.58114 0.595026 0.340932
0.662898 0.612085 0.335348
0.771374 0.617792 0.329946
0.897215 0.6159 0.33106
0.990082 0.612329 0.331106
0.365225 0.584451 0.405768
0.437003 0.605493 0.401694
0.498177 0.627344 0.375845
0.557336 0.656535 0.340673
0.620493 0.690105 0.332433
0.691035 0.717342 0.325414
0.777401 0.737133 0.317113
0.889067 0.744701 0.315923
0.97142 0.743572 0.31426
0.475608 0.688807 0.42591
0.509575 0.699519 0.411688
0.546349 0.714763 0.376837
0.592615 0.740444 0.339956
0.651957 0.776043 0.326711
0.716396 0.810193 0.311391
0.794934 0.838453 0.29601
0.888304 0.861143 0.304601
0.953399 0.867521 0.307271
0.538445 0.79263 0.465217
0.561944 0.799985 0.450202
0.588434 0.810254 0.419257
0.623346 0.829496 0.380316
0.674937 0.861845 0.351415
0.738415 0.89897 0.332235
0.813001 0.935409 0.320653
0.894835 0.966735 0.332799
0.944762 0.982116 0.350423
0.00767529 0.043595 0.171954
0.0257267 0.0476234 0.189273
0.0593576 0.0497444 0.214939
0.143282 0.0504311 0.212985
0.238132 0.0700694 0.179568
0.368444 0.0664988 0.220966
0.541222 0.0473335 0.297215
0.715496 0.0270085 0.349874
0.875425 0.0201572 0.376837
0.00898756 0.0951705 0.220172
0.0294499 0.104616 0.232624
0.0758221 0.118654 0.26743
0.196582 0.137026 0.304952
0.276967 0.123308 0.218097
0.397513 0.118502 0.246769
0.569955 0.115541 0.315435
0.738903 0.111208 0.359426
0.893126 0.107897 0.387503
0.0179599 0.174014 0.330297
0.0431067 0.181064 0.335866
0.0944686 0.199313 0.356741
0.245121 0.257862 0.423545
0.393973 0.272923 0.345861
0.511055 0.241962 0.350881
0.647242 0.223301 0.376287
0.787228 0.218143 0.387488
0.933135 0.249561 0.410208
0.0625772 0.270985 0.419562
0.0895857 0.275685 0.423041
0.147036 0.313878 0.471031
0.318318 0.376486 0.498985
0.487373 0.42063 0.429129
0.607874 0.390295 0.426276
0.729381 0.381109 0.428824
0.854536 0.377966 0.426871
0.960189 0.377859 0.423194
0.142214 0.372702 0.456565
0.16701 0.377386 0.458946
0.220996 0.421363 0.493019
0.419562 0.492821 0.50927
0.54789 0.526909 0.483375
0.652766 0.506661 0.474922
0.772625 0.498894 0.472053
0.894469 0.494484 0.473777
0.990936 0.489693 0.474296
0.219425 0.475029 0.485512
0.266575 0.508232 0.506783
0.38645 0.551263 0.512795
0.524498 0.590646 0.49955
0.598947 0.614542 0.499382
0.67631 0.619974 0.478279
0.786801 0.618265 0.468666
0.90782 0.615259 0.468421
0.996033 0.611231 0.467918
0.33695 0.591348 0.527337
0.414939 0.620005 0.510994
0.500725 0.649668 0.508385
0.586984 0.676814 0.511803
0.643107 0.700954 0.495827
0.706172 0.72433 0.479591
0.791424 0.739071 0.464073
0.90367 0.742016 0.454734
0.984619 0.739498 0.453285
0.459831 0.701946 0.522133
0.506035 0.719875 0.525536
0.572427 0.738109 0.536797
0.627619 0.758709 0.521508
0.676173 0.786084 0.494224
0.735286 0.817945 0.483742
0.808667 0.846372 0.469947
0.90103 0.864088 0.458122
0.964767 0.867247 0.45127
0.525689 0.800122 0.550118
0.567819 0.812604 0.560693
0.612741 0.82916 0.558022
0.656306 0.845762 0.53579
0.698741 0.870451 0.503563
0.755962 0.905348 0.48658
0.828 0.94139 0.490227
0.908507 0.971313 0.49102
0.95523 0.981857 0.486824
0.0115663 0.0632029 0.257618
0.0347906 0.0682078 0.27361
0.0852216 0.0775464 0.305562
0.162676 0.0812695 0.332372
0.251667 0.078294 0.285527
0.333562 0.106355 0.246677
0.465537 0.102434 0.31104
0.647471 0.0770886 0.408774
0.820203 0.0598611 0.470466
0.0124056 0.114183 0.296147
0.0355077 0.122499 0.314137
0.092546 0.140352 0.355032
0.179614 0.166735 0.417136
0.317205 0.174868 0.375937
0.360754 0.153368 0.276478
0.495125 0.153735 0.338903
0.673198 0.142931 0.425528
0.843305 0.138338 0.489204
0.0156863 0.189532 0.386801
0.0411231 0.196048 0.392248
0.100069 0.214496 0.414633
0.195483 0.256306 0.49015
0.403159 0.318334 0.504311
0.482673 0.299367 0.406317
0.581445 0.252735 0.424506
0.722911 0.227359 0.461463
0.902327 0.276707 0.529122
0.0378729 0.280537 0.4963
0.0750744 0.285603 0.499229
0.132219 0.300923 0.513466
0.242161 0.363836 0.580301
0.47039 0.437278 0.571527
0.588098 0.442237 0.501167
0.700465 0.411154 0.519646
0.829877 0.391424 0.537484
0.945785 0.393561 0.546822
0.106355 0.383474 0.561013
0.13814 0.388357 0.564904
0.192905 0.432593 0.60795
0.3888 0.495827 0.631373
0.540444 0.547189 0.592172
0.65304 0.557046 0.563882
0.759457 0.52462 0.559869
0.876585 0.511986 0.559045
0.968673 0.507744 0.556405
0.190631 0.497963 0.592371
0.212863 0.502373 0.594278
0.263188 0.536995 0.611414
0.45742 0.598383 0.628962
0.614542 0.641779 0.612192
0.690745 0.648249 0.610224
0.793423 0.631342 0.598215
0.908461 0.622919 0.596185
0.991241 0.617609 0.596185
0.274922 0.599069 0.60705
0.351019 0.628656 0.616983
0.466407 0.661524 0.620096
0.584802 0.695506 0.613519
0.673915 0.71812 0.628824
0.724804 0.735302 0.620951
0.805447 0.743511 0.598642
0.917006 0.741924 0.59086
0.992004 0.738888 0.590143
0.428351 0.705333 0.625223
0.490211 0.725475 0.618936
0.562112 0.750088 0.618341
0.646723 0.776318 0.637308
0.711864 0.799451 0.638926
0.758633 0.823362 0.62211
0.823941 0.848005 0.60708
0.913252 0.86363 0.592996
0.974777 0.865431 0.586297
0.518837 0.804288 0.63653
0.558587 0.819409 0.63798
0.612543 0.841062 0.647974
0.678645 0.86334 0.659495
0.734676 0.884291 0.649409
0.781506 0.910536 0.628428
0.844373 0.94197 0.619593
0.92163 0.969696 0.624323
0.964645 0.978622 0.616556
0.0193484 0.0871138 0.358267
0.0494087 0.0939651 0.37261
0.11194 0.109834 0.407752
0.176364 0.124666 0.454688
0.318486 0.137057 0.461479
0.363455 0.124712 0.368688
0.432547 0.157534 0.338811
0.57052 0.154543 0.429007
0.741238 0.130816 0.527672
0.0161898 0.13724 0.395682
0.0421454 0.144503 0.408988
0.109987 0.164004 0.445792
0.181064 0.18822 0.492485
0.367193 0.239597 0.545373
0.414557 0.208713 0.433631
0.46038 0.205005 0.368078
0.599573 0.20441 0.455497
0.7664 0.19443 0.550042
0.0188907 0.208743 0.458305
0.0472267 0.213993 0.466529
0.115572 0.229786 0.495918
0.186404 0.254002 0.542168
0.412741 0.339757 0.630686
0.51519 0.371984 0.552163
0.549233 0.318349 0.46424
0.649454 0.271214 0.501228
0.845609 0.334508 0.617472
0.034699 0.293202 0.558083
0.0771954 0.29836 0.559792
0.136461 0.310719 0.569131
0.199771 0.343709 0.610758
0.452399 0.437766 0.68011
0.58587 0.485573 0.615778
0.66865 0.476112 0.579324
0.780758 0.442679 0.617182
0.904631 0.436835 0.651621
0.0859388 0.395727 0.65098
0.126329 0.401434 0.655879
0.178805 0.438224 0.695933
0.313619 0.489754 0.728817
0.501945 0.537743 0.707378
0.64622 0.590829 0.663203
0.742 0.581704 0.640635
0.851957 0.547616 0.659144
0.946181 0.53489 0.669367
0.158083 0.514565 0.701747
0.183001 0.518608 0.705486
0.22858 0.552651 0.729335
0.426596 0.607569 0.741421
0.591745 0.643381 0.725841
0.697002 0.681102 0.697612
0.783642 0.674006 0.687022
0.891493 0.646998 0.684031
0.968841 0.638392 0.683421
0.236515 0.62649 0.709789
0.256184 0.630213 0.710369
0.296941 0.645182 0.713909
0.4925 0.697108 0.726024
0.647822 0.732952 0.724956
0.744976 0.757092 0.725673
0.814359 0.761318 0.725628
0.91986 0.752331 0.717784
0.987228 0.747417 0.717571
0.348074 0.713466 0.707912
0.425025 0.736797 0.713848
0.518547 0.760983 0.720821
0.624765 0.788144 0.724178
0.72105 0.814878 0.730632
0.786313 0.832105 0.742092
0.83975 0.852247 0.736278
0.925246 0.866117 0.72166
0.983551 0.865965 0.7187
0.4869 0.813809 0.73225
0.536141 0.82977 0.735271
0.602823 0.849012 0.740307
0.677577 0.87216 0.748638
0.751141 0.897642 0.755199
0.81297 0.915953 0.753948
0.864881 0.941497 0.744579
0.934737 0.966812 0.747784
0.973297 0.975174 0.742931
0.0331579 0.115877 0.468879
0.0633097 0.122621 0.480293
0.134264 0.140093 0.511009
0.197772 0.160769 0.567941
0.333547 0.206851 0.630076
0.448737 0.202335 0.558511
0.493004 0.218982 0.485969
0.558434 0.256138 0.47805
0.678798 0.244907 0.5608
0.023209 0.162905 0.498817
0.0524758 0.169146 0.507713
0.129381 0.18822 0.539269
0.20029 0.214237 0.585931
0.350744 0.272557 0.67895
0.502846 0.30779 0.630121
0.530632 0.284871 0.526192
0.586908 0.303181 0.506752
0.698329 0.289097 0.578973
0.0287175 0.227817 0.551873
0.0614176 0.232822 0.557946
0.13286 0.24828 0.581933
0.201541 0.271931 0.624521
0.371923 0.348028 0.730297
0.553811 0.405493 0.695369
0.610513 0.418357 0.610452
0.636042 0.375509 0.556802
0.781445 0.420096 0.659846
0.04094 0.310277 0.621256
0.0880446 0.316167 0.625223
0.148043 0.327932 0.641032
0.2103 0.349279 0.678187
0.406394 0.435416 0.76553
0.599481 0.501915 0.749905
0.681331 0.528969 0.67776
0.74165 0.518135 0.660502
0.844892 0.511315 0.712016
0.0820172 0.416007 0.738537
0.126879 0.4215 0.741176
0.175387 0.431189 0.747997
0.230182 0.455604 0.771435
0.457725 0.531762 0.801907
0.641093 0.595117 0.787137
0.738537 0.626215 0.728038
0.813428 0.613382 0.720027
0.896788 0.593317 0.747448
0.137377 0.533974 0.807431
0.165621 0.538827 0.812375
0.210376 0.560693 0.831418
0.410101 0.616281 0.850034
0.547189 0.638804 0.827741
0.683436 0.682704 0.795193
0.780819 0.712352 0.768566
0.865644 0.696742 0.763073
0.936217 0.676844 0.776028
0.201297 0.648905 0.823743
0.222049 0.652415 0.826383
0.263142 0.66627 0.833616
0.457786 0.712612 0.839048
0.617792 0.73727 0.834287
0.738735 0.766278 0.816175
0.816846 0.789792 0.803784
0.900236 0.780728 0.802152
0.96289 0.769574 0.804318
0.284627 0.739727 0.809339
0.307698 0.74464 0.809934
0.344854 0.753552 0.811353
0.513878 0.793744 0.82034
0.659907 0.824292 0.830091
0.777996 0.848569 0.833753
0.853391 0.86305 0.836622
0.930846 0.874556 0.842222
0.983474 0.873487 0.841962
0.419867 0.83064 0.816403
0.476249 0.846662 0.822263
0.556603 0.866514 0.83238
0.646845 0.886656 0.841779
0.740887 0.908553 0.85127
0.821744 0.925872 0.851133
0.887083 0.940963 0.852583
0.946014 0.963806 0.858625
0.980377 0.971969 0.858442
0.0489052 0.139361 0.557702
0.0767224 0.144884 0.565301
0.14995 0.163058 0.593896
0.212634 0.182757 0.642634
0.335424 0.23209 0.717708
0.511833 0.280552 0.70576
0.577722 0.318166 0.658976
0.625727 0.349432 0.613855
0.67248 0.370855 0.607736
0.0381323 0.184543 0.584649
0.0680552 0.190173 0.592096
0.14612 0.208911 0.620233
0.214893 0.233356 0.6636
0.345678 0.29012 0.75729
0.539117 0.346456 0.74548
0.605524 0.381857 0.692042
0.649805 0.397696 0.635538
0.692653 0.409903 0.628504
0.0432136 0.246326 0.633921
0.0797742 0.251759 0.640208
0.149325 0.26714 0.663279
0.216724 0.292699 0.708156
0.362371 0.360922 0.797925
0.574655 0.425269 0.796414
0.648951 0.465873 0.741161
0.699779 0.482628 0.683848
0.751873 0.503731 0.689128
0.0519265 0.328725 0.70428
0.106126 0.335668 0.712642
0.16376 0.349523 0.733104
0.223804 0.370275 0.766934
0.388754 0.440848 0.839979
0.608789 0.510887 0.843732
0.69839 0.556802 0.79118
0.758663 0.575143 0.739651
0.806378 0.586419 0.742306
0.0877546 0.435264 0.810605
0.131868 0.441047 0.813397
0.179767 0.451881 0.822614
0.23241 0.468559 0.839994
0.430869 0.534051 0.88542
0.637461 0.59855 0.864942
0.740597 0.644709 0.82472
0.810971 0.65948 0.788022
0.854582 0.661372 0.787427
0.126909 0.557839 0.910155
0.158679 0.562432 0.9149
0.211246 0.578607 0.927016
0.326589 0.608804 0.939849
0.498863 0.637812 0.918517
0.66743 0.679164 0.880751
0.779995 0.724453 0.85771
0.855802 0.737194 0.832395
0.897353 0.733608 0.829664
0.177081 0.666133 0.935699
0.200412 0.669841 0.93959
0.24387 0.68188 0.948638
0.444175 0.723384 0.949355
0.613718 0.743206 0.917739
0.714733 0.764996 0.903792
0.815839 0.798459 0.890333
0.891844 0.811536 0.876677
0.933288 0.807462 0.874067
0.236805 0.764446 0.928313
0.259968 0.768887 0.930632
0.296635 0.776684 0.935103
0.484672 0.813947 0.935103
0.65156 0.834333 0.921309
0.764706 0.856275 0.922408
0.856336 0.87686 0.922698
0.924147 0.888838 0.916869
0.961288 0.888014 0.916732
0.365881 0.861891 0.923262
0.412909 0.871153 0.92549
0.503044 0.881697 0.924498
0.612207 0.900328 0.927962
0.714702 0.920348 0.9355
0.805783 0.937728 0.943984
0.887785 0.951782 0.948089
0.952026 0.961639 0.948608
0.980011 0.968307 0.953063
