Car LUT.cube
TITLE "Generated by Resolve"
LUT_3D_SIZE 5
0 0 0
0.104768 0.0134737 0.000854505
0.363577 0.0243687 0.00488289
0.646677 0.026627 0.00950637
0.935683 0.0131075 0.00270085
0.0674754 0.134646 0.0848096
0.184527 0.185122 0.0107424
0.447669 0.229633 0
0.707729 0.243076 0
0.963607 0.239872 0
0.215824 0.352941 0.153994
0.345937 0.40798 0.0308232
0.511513 0.469139 0
0.732784 0.493706 0
0.968032 0.490898 0
0.412573 0.596246 0.170291
0.486625 0.63035 0.104631
0.600885 0.683711 0.03093
0.750164 0.735729 0
0.938476 0.751995 0
0.511772 0.782391 0.25565
0.561105 0.80911 0.210101
0.656321 0.863066 0.109987
0.791074 0.929854 0.0412909
0.922103 0.985199 0.0667277
0.00267033 0.0141604 0.0591745
0.0607156 0.0247959 0.0826886
0.328725 0.0141451 0.118517
0.616876 0.0165255 0.145464
0.90135 0.0121462 0.141207
0.0601053 0.150347 0.187808
0.157748 0.200183 0.216403
0.463691 0.233906 0.205081
0.716793 0.236393 0.212085
0.963424 0.229114 0.212085
0.16907 0.329702 0.225864
0.333516 0.405142 0.204974
0.529961 0.477195 0.190234
0.758511 0.489387 0.196262
0.98732 0.485298 0.200488
0.403983 0.577691 0.275868
0.484733 0.616815 0.203998
0.610651 0.680858 0.161517
0.765682 0.733227 0.171191
0.957366 0.747005 0.170581
0.527276 0.786114 0.361456
0.571511 0.807248 0.314961
0.664668 0.862394 0.237568
0.802426 0.932387 0.183215
0.934905 0.984329 0.227497
0.00767529 0.043595 0.171954
0.0593576 0.0497444 0.214939
0.238132 0.0700694 0.179568
0.541222 0.0473335 0.297215
0.875425 0.0201572 0.376837
0.0179599 0.174014 0.330297
0.0944686 0.199313 0.356741
0.393973 0.272923 0.345861
0.647242 0.223301 0.376287
0.933135 0.249561 0.410208
0.142214 0.372702 0.456565
0.220996 0.421363 0.493019
0.54789 0.526909 0.483375
0.772625 0.498894 0.472053
0.990936 0.489693 0.474296
0.33695 0.591348 0.527337
0.500725 0.649668 0.508385
0.643107 0.700954 0.495827
0.791424 0.739071 0.464073
0.984619 0.739498 0.453285
0.525689 0.800122 0.550118
0.612741 0.82916 0.558022
0.698741 0.870451 0.503563
0.828 0.94139 0.490227
0.95523 0.981857 0.486824
0.0193484 0.0871138 0.358267
0.11194 0.109834 0.407752
0.318486 0.137057 0.461479
0.432547 0.157534 0.338811
0.741238 0.130816 0.527672
0.0188907 0.208743 0.458305
0.115572 0.229786 0.495918
0.412741 0.339757 0.630686
0.549233 0.318349 0.46424
0.845609 0.334508 0.617472
0.0859388 0.395727 0.65098
0.178805 0.438224 0.695933
0.501945 0.537743 0.707378
0.742 0.581704 0.640635
0.946181 0.53489 0.669367
0.236515 0.62649 0.709789
0.296941 0.645182 0.713909
0.647822 0.732952 0.724956
0.814359 0.761318 0.725628
0.987228 0.747417 0.717571
0.4869 0.813809 0.73225
0.602823 0.849012 0.740307
0.751141 0.897642 0.755199
0.864881 0.941497 0.744579
0.973297 0.975174 0.742931
0.0489052 0.139361 0.557702
0.14995 0.163058 0.593896
0.335424 0.23209 0.717708
0.577722 0.318166 0.658976
0.67248 0.370855 0.607736
0.0432136 0.246326 0.633921
0.149325 0.26714 0.663279
0.362371 0.360922 0.797925
0.648951 0.465873 0.741161
0.751873 0.503731 0.689128
0.0877546 0.435264 0.810605
0.179767 0.451881 0.822614
0.430869 0.534051 0.88542
0.740597 0.644709 0.82472
0.854582 0.661372 0.787427
0.177081 0.666133 0.935699
0.24387 0.68188 0.948638
0.613718 0.743206 0.917739
0.815839 0.798459 0.890333
0.933288 0.807462 0.874067
0.365881 0.861891 0.923262
0.503044 0.881697 0.924498
0.714702 0.920348 0.9355
0.887785 0.951782 0.948089
0.980011 0.968307 0.953063
